X:104
T: Stenselepolskan
C: Johan August Andersson, Dorotea
R:polska
Z:Anton Teljebäck 2007-11-26
O:Lappland
M:3/4
L:1/16
K:Gm
[G,2D2]B2 B2AB cBAG | F2A2 A2GA BAGF | E2EF G2GA B2AG | ^FGAF G2D2 B,CB,A, |
[G,2D2]B2 B2AB cBAG | F2A2 A2GA BAGF | E2EF G2GA B2AG | ^FGAF G8 :|
|:D2d2 d2^cd e2d2 | D2c2 c2Bc dcBA | G^FGA BABc d2d2 | ^c2Ac d8 |
D2d2 d2^cd e2d2 | D2c2 c2Bc dcBA | G^FGA BABc d^cde | d2^F2 G8 :|
(:musicend:)

En variant på andra reprisen:
(:music:)
